rospo-icon-theme-classic-common/16x16/status/package-broken.svg

<svg height="16" viewBox="0 0 16 16" width="16" xmlns="http://www.w3.org/2000/svg"><rect fill="#e95f50" height="16" rx=".8" transform="matrix(0 -1 -1 0 0 -1036.3622)" width="16" x="-1052.36" y="-16"/><path d="m7 3v .0039062 6.9960938l2-.0097656v-6.9902344zm0 8.001953v1.998047h2v-1.998047z" fill="#fff" fill-rule="evenodd" transform=""/></svg>

<svg xmlns="http://www.w3.org/2000/svg" width="16" height="16" version="1.1" viewBox="0 0 16 16">
 <g transform="translate(0,-1036.3622)">
  <rect style="fill:#e95f50" width="16" height="16" x="-1052.36" y="-16" rx=".8" ry=".8" transform="matrix(0,-1,-1,0,0,0)"/>
  <path style="fill:#ffffff;fill-rule:evenodd" d="M 7 3 L 7 3.0039062 L 7 10 L 9 9.9902344 L 9 3 L 7 3 z M 7 11.001953 L 7 13 L 9 13 L 9 11.001953 L 7 11.001953 z" transform="translate(0,1036.3622)"/>
 </g>
</svg>
